X:1

T:White Man

L:1/8

M:2/4

S:Christeson – Old Time Fiddler’s Repertory, vol. 2

K:D

F/E/|D/E/F/D/ EF/E/|D/E/F/E/ DD/D/|D/F/E/D/ F/E/F/G/|A/B/A/F/ E E/E/|

DF/D/ E/D/F/E/|D/F/E/D/ FF/E/|D/E/F/E/ [DA]f/e/|d/B/A/F/ [DA]:|

|:f/g/|aa/e/ f/g/f/e/|d/f/e/d/ ff/g/|aa/e/ f/g/f/d/|g/f/e/c/ [Ae]f/g/|

aa/e/ f/g/f/e/|d/f/e/d/ ff/a/|ba f>e|d/B/A/F/ [DA]:|

 

WHITE MOUNTAIN [1], THE. Irish, Air. The title is perhaps "Bright Mountain." Green Linnet SIF1035, Brian Conway & Tony De Marco - "The Apple in Winter" (1981. Learned by De Marco from the singing County Kilkenny sean nos singer Joe Sweeney).

 

WHITE MOUNTAIN [2], THE. AKA and see “Sliabh Bána.” Irish, Reel.

 

WHITE MOUNTAIN MAID, THE (An Cailin Ua Sliab-Ban). Irish, Air (3/4 time). D Major. Standard tuning. One part. Source for notated version: Chicago Police Sergeant James O’Neill, a fiddler originally from County Down and Francis O’Neill’s collaborator [O’Neill]. O'Neill (Music of Ireland: 1850 Melodies), 1903/1979; No. 491, pg. 86.

